X:5
T:Mazurka efter Karl Berg
T:(SmM VII-5)
R:Mazurka
O:Värnamo, Småland
B:Småländsk Musiktradition
B:August Ysenius samling
N:Ca 1920. Låten är upptecknad efter smeden och fiolspelmannen Karl Berg (1851-1927) i Värnamo.
M:3/4
L:1/8
K:G
d>d d2 B2|g>g g2 d2|e>e e>c A>e|e>d d2 B2|
d>d d2 B2|g>g g2 d2|e>e e>c A>e|1G>A G2G2:|2G>A G4||
|:b2 ag f((3e/f/g/)|a>f d2d2|[aA]2 dc B((3A/B/c/)|d>B G>G G2|
[eB]>G GB GB|d>B GB dg|b2 ag f((3e/f/g/)|a2 [gB]4:|

